polaris-icons/icons/new-icons/WholesaleMajor.svg

<svg width="20" height="20" viewBox="0 0 20 20" fill="none" xmlns="http://www.w3.org/2000/svg">
<path fill-rule="evenodd" clip-rule="evenodd" d="M15 4.25C15 3.83579 14.6642 3.5 14.25 3.5C13.8358 3.5 13.5 3.83579 13.5 4.25V8.23056L12.6992 6.22868C12.2816 5.18462 11.2704 4.5 10.1459 4.5H6.75C6.33579 4.5 6 4.83579 6 5.25V8.5H4.25C3.83579 8.5 3.5 8.83579 3.5 9.25V12.409C3.33984 12.7387 3.25 13.1088 3.25 13.5C3.25 14.8807 4.36929 16 5.75 16C6.86941 16 7.81698 15.2643 8.13555 14.25H10.6145C10.933 15.2643 11.8806 16 13 16C14.3807 16 15.5 14.8807 15.5 13.5C15.5 13.3288 15.4828 13.1616 15.45 13H17.25C17.6642 13 18 12.6642 18 12.25C18 11.8358 17.6642 11.5 17.25 11.5H15V4.25ZM6.41146 14.25C6.61906 14.0668 6.75 13.7987 6.75 13.5C6.75 13.2013 6.61906 12.9332 6.41146 12.75C6.23517 12.5944 6.00361 12.5 5.75 12.5C5.49639 12.5 5.26483 12.5944 5.08854 12.75C4.88094 12.9332 4.75 13.2013 4.75 13.5C4.75 13.7987 4.88094 14.0668 5.08854 14.25C5.26483 14.4056 5.49639 14.5 5.75 14.5C6.00361 14.5 6.23517 14.4056 6.41146 14.25ZM5 11.1145C5.23676 11.0401 5.4887 11 5.75 11C6.86941 11 7.81698 11.7357 8.13555 12.75H10.6145C10.909 11.8122 11.7413 11.1125 12.75 11.0123V11H9.5C9.41259 11 9.32584 10.9847 9.24369 10.9548L6.61787 10H5V11.1145ZM12.3385 12.75C12.4548 12.6474 12.5952 12.5714 12.75 12.5315C12.8299 12.5109 12.9137 12.5 13 12.5C13.5523 12.5 14 12.9477 14 13.5C14 13.7861 13.8798 14.0442 13.6872 14.2264C13.5081 14.396 13.2662 14.5 13 14.5C12.7464 14.5 12.5148 14.4056 12.3385 14.25C12.1309 14.0668 12 13.7987 12 13.5C12 13.2013 12.1309 12.9332 12.3385 12.75ZM9.63213 9.5H12.3922L11.3065 6.78576C11.1167 6.31119 10.6571 6 10.1459 6H7.5V8.72468L9.63213 9.5Z" fill="#4A4A4A"/>
</svg>

<svg viewBox="0 0 20 20" xmlns="http://www.w3.org/2000/svg"><path fill-rule="evenodd" d="M15 4.25a.75.75 0 0 0-1.5 0v3.98l-.8-2.001a2.75 2.75 0 0 0-2.554-1.729h-3.396a.75.75 0 0 0-.75.75v3.25h-1.75a.75.75 0 0 0-.75.75v3.159a2.5 2.5 0 1 0 4.636 1.841h2.479a2.501 2.501 0 0 0 4.835-1.25h1.8a.75.75 0 0 0 0-1.5h-2.25v-7.25Zm-8.589 10a.998.998 0 0 0 0-1.5.996.996 0 0 0-1.322 0 .998.998 0 0 0 0 1.5.996.996 0 0 0 1.322 0Zm-1.411-3.136a2.501 2.501 0 0 1 3.136 1.636h2.479a2.502 2.502 0 0 1 2.135-1.738v-.012h-3.25a.75.75 0 0 1-.256-.045l-2.626-.955h-1.618v1.114Zm7.338 1.636a1 1 0 1 1 1.323 1.498 1 1 0 0 1-1.322-1.498Zm-2.706-3.25h2.76l-1.085-2.714a1.25 1.25 0 0 0-1.161-.786h-2.646v2.725l2.132.775Z" fill="#5C5F62"/></svg>
